build/Karasa-Jaga/scalable/status/network-cellular-edge-symbolic.svg

<svg height="16" width="16" xmlns="http://www.w3.org/2000/svg"><path d="m2.0625 0c-1.1507 0-2.0625.91177-2.0625 2.0625v11.875c0 1.1507.91177 2.0625 2.0625 2.0625h11.875c1.1507 0 2.0625-.91177 2.0625-2.0625v-11.875c0-1.1507-.91177-2.0625-2.0625-2.0625zm3 2.90625h6.15625l-1.5 1.53125h-3.125zm-.28125.28125 1.5 1.53125v2.03125l-.9375.96875-.5625-.5625zm1.625 4.0625h3.21875l.75.75-.75.75h-3.21875l-.78125-.75zm-1.0625 1.03125.9375.96875v2.03125l-1.5 1.53125v-3.96875zm1.25 3.3125h3.125l1.5 1.5h-6.15625z" fill="#bebebe"/></svg>

<?xml version="1.0" encoding="UTF-8" standalone="no"?>
<!-- Created with Inkscape (http://www.inkscape.org/) -->

<svg
   xmlns:dc="http://purl.org/dc/elements/1.1/"
   xmlns:cc="http://creativecommons.org/ns#"
   xmlns:rdf="http://www.w3.org/1999/02/22-rdf-syntax-ns#"
   xmlns:svg="http://www.w3.org/2000/svg"
   xmlns="http://www.w3.org/2000/svg"
   xmlns:sodipodi="http://sodipodi.sourceforge.net/DTD/sodipodi-0.dtd"
   xmlns:inkscape="http://www.inkscape.org/namespaces/inkscape"
   id="svg7384"
   height="16"
   width="16"
   version="1.1"
   inkscape:version="0.48.3.1 r9886"
   sodipodi:docname="network-cellular-edge-symbolic.svg">
  <defs
     id="defs9" />
  <sodipodi:namedview
     pagecolor="#ffffff"
     bordercolor="#666666"
     borderopacity="1"
     objecttolerance="10"
     gridtolerance="10"
     guidetolerance="10"
     inkscape:pageopacity="0"
     inkscape:pageshadow="2"
     inkscape:window-width="1366"
     inkscape:window-height="711"
     id="namedview7"
     showgrid="false"
     inkscape:zoom="14.75"
     inkscape:cx="-2.4067797"
     inkscape:cy="16.735037"
     inkscape:window-x="0"
     inkscape:window-y="0"
     inkscape:window-maximized="1"
     inkscape:current-layer="svg7384" />
  <title
     id="title9167">Gnome Symbolic Icon Theme</title>
  <metadata
     id="metadata90">
    <rdf:RDF>
      <cc:Work
         rdf:about="">
        <dc:format>image/svg+xml</dc:format>
        <dc:type
           rdf:resource="http://purl.org/dc/dcmitype/StillImage" />
        <dc:title>Gnome Symbolic Icon Theme</dc:title>
      </cc:Work>
    </rdf:RDF>
  </metadata>
  <g
     id="layer9"
     transform="translate(-101 -237)">
    <path
       style="color:#bebebe;fill:#bebebe"
       d="M 2.0625 0 C 0.9118 0 0 0.91177 0 2.0625 L 0 13.9375 C 0 15.0882 0.91177 16 2.0625 16 L 13.9375 16 C 15.0882 16 16 15.08823 16 13.9375 L 16 2.0625 C 16 0.9118 15.08823 0 13.9375 0 L 2.0625 0 z M 5.0625 2.90625 L 11.21875 2.90625 L 9.71875 4.4375 L 6.59375 4.4375 L 5.0625 2.90625 z M 4.78125 3.1875 L 6.28125 4.71875 L 6.28125 6.75 L 5.34375 7.71875 L 4.78125 7.15625 L 4.78125 3.1875 z M 6.40625 7.25 L 9.625 7.25 L 10.375 8 L 9.625 8.75 L 6.40625 8.75 L 5.625 8 L 6.40625 7.25 z M 5.34375 8.28125 L 6.28125 9.25 L 6.28125 11.28125 L 4.78125 12.8125 L 4.78125 8.84375 L 5.34375 8.28125 z M 6.59375 11.59375 L 9.71875 11.59375 L 11.21875 13.09375 L 5.0625 13.09375 L 6.59375 11.59375 z "
       transform="translate(101,237)"
       id="rect7047" />
  </g>
</svg>
